X:169
T:Swing 41
C:Django Reinhardt
N:Arranged for Mandolin Mike Stangelamd
L:1/8
Q:1/4=200
M:4/4
K:F
|: "F"f8 | fg/f/ e3/2f/ zg/f/ e2 | "Bbmaj7"f2 z4 z2 | fg/f/ e3/2f4z/ | (3"Bdim7"_ag_g fd =B_A F2 | 
F_A =Bd f_a zz | "C7"c'=b _bd (3aba cf |1 z8 :|2 z4 z3=B |] "F"cf _az z2 z=B | 
cf dz z2 z=B | "Bb7"cf _az z2 z=B | cf dz z4 | "Bdim7"z2 (3d_e=e f2 (3_a=ab | 
=b_a f=B _AB fa | "C9"=b_b da zc zf | "F"zf z4 z2 | "F"f4 _e3f/e/ | cz z2 z2 F2 | 
"Bb7"(3_ABAz DF AB | cd f2 _az z2 | "Bdim7"z2 (3f_g=g (3_afd (3=B_AF | (3D=B,D (3F_A=B (3df_a (3ged | 
(3"C9"AGE (3GBc (3_deg (3b_d'c' | "F"z4 zc' zd' | "Bb7"f'z (3_e'f'e' d'b z_a | 
z2 fz f4 | "F"z2 f_a f2 f2 | "F7"f_a c'a zf _ec | "Bb6"zB dg bd' bg | "Bdim7"dB =Bd _a=b d'e' | 
f'2 z2 ze ac' | "Gm7"e'd' bg "C9"ec' ae | "F"f2 z2 z2 zf | ga (3c'd'c' ag fz | 
(3"Bb7"f'e'_e' d'6 | (3c'd'c' bz (3_aba fz | "Bdim7"=B4 z3/2d/ f3/2g/ | _a=b d'z f'z (3e'f'e' | 
"C9"d'c' ag c'z az | "F"f4 z4 | 


